projects/seb-pictograms/svg/light/91-Picto-Light_black.svg

<svg xmlns="http://www.w3.org/2000/svg" viewBox="0 0 170 170"><path d="M85 101.5h-.6a1.5 1.5 0 01-.9-1.4V81.7H72.3a1.5 1.5 0 01-1.5-1.5V8a1.5 1.5 0 011.5-1.5H162a1.5 1.5 0 011.5 1.5v72.2a1.5 1.5 0 01-1.5 1.5h-56.5l-19.4 19.4a1.5 1.5 0 01-1.1.4zM73.8 78.7H85a1.5 1.5 0 011.5 1.5v16.2l17.3-17.3a1.5 1.5 0 011.1-.4h55.7V9.5H73.8zm-30.6 27.2a16 16 0 1116-16 16 16 0 01-16 16zm0-29a13 13 0 1013 13 13 13 0 00-13-13zm7.5 41.1a16 16 0 0116 16v31h-3v-31.1a13 13 0 00-13-13h-15a13 13 0 00-13 13V165h-3v-31.1a16 16 0 0116-16z"/></svg>

<svg id="PIKTO_LIGHT" xmlns="http://www.w3.org/2000/svg" viewBox="0 0 170 170"><title>light_black</title><path d="M85,101.5h-.6a1.5,1.5,0,0,1-.9-1.4V81.7H72.3a1.5,1.5,0,0,1-1.5-1.5V8a1.5,1.5,0,0,1,1.5-1.5H162A1.5,1.5,0,0,1,163.5,8V80.2a1.5,1.5,0,0,1-1.5,1.5H105.5L86.1,101.1A1.5,1.5,0,0,1,85,101.5ZM73.8,78.7H85a1.5,1.5,0,0,1,1.5,1.5V96.4l17.3-17.3a1.5,1.5,0,0,1,1.1-.4h55.7V9.5H73.8Z"/><path d="M43.2,105.9a16,16,0,1,1,16-16A16,16,0,0,1,43.2,105.9Zm0-29a13,13,0,1,0,13,13A13,13,0,0,0,43.2,76.9Z"/><path d="M50.7,118a16,16,0,0,1,16,16V165h-3V133.9a13,13,0,0,0-13-13h-15a13,13,0,0,0-13,13V165h-3V133.9a16,16,0,0,1,16-16Z"/></svg>
